X: 35167
T: Ronnie Power's
R: jig
M: 6/8
K: Gmajor
|:ded BAG|AdA BAG|EFG DEF|GAc BAG|
ded BAG|AGA BAG|EFG ABc|BAG G3:|
dGG eGG|dGG BAB|cBA GAB|~c3 cde|
dGG eGG|dGG BAB|cBA BAG|Acd e3|
dGG eGG|dGG BAB|cBc cde|dcd d3|
cAc cde|dBG BAB|cBA cde|dAF G3||

